HTML/assets/dropdown.svg

<?xml version="1.0" encoding="UTF-8"?>
<svg width="24px" height="24px" viewBox="0 0 24 24" version="1.1" xmlns="http://www.w3.org/2000/svg" xmlns:xlink="http://www.w3.org/1999/xlink">
    <!-- Generator: sketchtool 49 (51002) - http://www.bohemiancoding.com/sketch -->
    <title>9A53A58E-1840-4F5A-BDA2-F075FF1BE7D8</title>
    <desc>Created with sketchtool.</desc>
    <defs>
        <path d="M8.70710678,17.2928932 L12.335,20.9207865 L15.9628933,17.2928932 C16.3534176,16.9023689 16.9865826,16.9023689 17.3771069,17.2928932 C17.7676311,17.6834175 17.7676311,18.3165825 17.3771069,18.7071068 L13.0421068,23.0421068 C12.6515825,23.4326311 12.0184175,23.4326311 11.6278933,23.0421068 L7.29289322,18.7071068 C6.90236893,18.3165825 6.90236893,17.6834175 7.29289322,17.2928932 C7.68341751,16.9023689 8.31658249,16.9023689 8.70710678,17.2928932 Z M8.70710678,7.04210682 C8.31658249,7.43263111 7.68341751,7.43263111 7.29289322,7.04210682 C6.90236893,6.65158253 6.90236893,6.01841755 7.29289322,5.62789326 L11.6278933,1.29289322 C12.0184175,0.902368927 12.6515825,0.902368927 13.0421068,1.29289322 L17.3771069,5.62789326 C17.7676311,6.01841755 17.7676311,6.65158253 17.3771069,7.04210682 C16.9865826,7.43263111 16.3534176,7.43263111 15.9628933,7.04210682 L12.335,3.41421356 L8.70710678,7.04210682 Z" id="path-1"></path>
    </defs>
    <g id="Symbols" stroke="none" stroke-width="1" fill="none" fill-rule="evenodd">
        <g id="Icons-/-24px-/-dropdown">
            <rect id="Base" x="0" y="0" width="24" height="24"></rect>
            <mask id="mask-2" fill="white">
                <use xlink:href="#path-1"></use>
            </mask>
            <g id="Mask" fill-rule="nonzero"></g>
            <g id="UI/Color/Flat/Dark-1" mask="url(#mask-2)" fill="#333333">
                <rect id="Base" x="0" y="0" width="24" height="24"></rect>
            </g>
        </g>
    </g>
</svg>

<svg xmlns="http://www.w3.org/2000/svg" xmlns:xlink="http://www.w3.org/1999/xlink" width="24" height="24" viewBox="0 0 24 24">
    <defs>
        <path id="a" d="M8.707 17.293l3.628 3.628 3.628-3.628a1 1 0 0 1 1.414 1.414l-4.335 4.335a1 1 0 0 1-1.414 0l-4.335-4.335a1 1 0 0 1 1.414-1.414zm0-10.25a1 1 0 0 1-1.414-1.415l4.335-4.335a1 1 0 0 1 1.414 0l4.335 4.335a1 1 0 0 1-1.414 1.414l-3.628-3.628-3.628 3.628z"/>
    </defs>
    <g fill="none" fill-rule="evenodd">
        <path d="M0 0h24v24H0z"/>
        <mask id="b" fill="#fff">
            <use xlink:href="#a"/>
        </mask>
        <g fill="#333" mask="url(#b)">
            <path d="M0 0h24v24H0z"/>
        </g>
    </g>
</svg>
